!!!!SEGMENT: pl-sa--103-a-iii-3--002_anonim--a-ja-kozak.krn
!!!cenid: 17xx:1736
!!!COM: Anonim
!!!COM-rismid: pe30004985
!!!CDT:
!!!CNT:
!!!OTL: A ja kozak
!!!PDT:
!!!AGN: Sacred
!!!SMS-siglum: PL-SA
!!!SMS-shelfmark: 103/A III 3
!!!SMS-shelfwork: 002 W
!!!SMS-variant:
!!!SMS-altvar:
!!!NIFC-rismid: 1001069970
!!!URL-scan: http://bc.bdsandomierz.pl/dlibra/publication/1459/edition/1427/content
!!!ONB-nifc: UWAGA: części: 1. Pasterze przy trzodzie, 2. A ja kozak, 3. A my dziady
!!!AIN: 1 bass 2 soprn 2 violn
!!!key:
**kern	**kern	**dynam	**kern	**dynam	**kern	**kern	**kern	**text
*	*group2	*group2	*group2	*group2	*group1	*group1	*group1	*group1
*part6	*part5	*	*part4	*part4	*part3	*part2	*part1	*part1
*staff6	*staff5	*	*staff4	*	*staff2	*staff2	*staff1	*staff1
*I"Fundamento.	*I"Violino 2do.	*	*I"Violino Primo.	*	*I"Baſso.	*I"Canto Secundo.	*I"Canto Primo.	*
*I'bc	*I'vl 2	*	*I'vl 1	*	*I'B	*I'S 2	*I'S 1	*
*	*Ivioln	*	*Ivioln	*	*Ibass	*Isoprn	*Isoprn	*
*	*ICstr	*	*ICstr	*	*ICvox	*ICvox	*ICvox	*
*IGcont	*	*	*	*	*IGsolo	*IGsolo	*IGsolo	*
*clefF4	*clefG2	*	*clefG2	*	*clefF4	*clefC1	*clefC1	*
*k[b-]	*k[b-]	*	*k[b-]	*	*k[b-]	*k[b-]	*k[b-]	*
*F:	*F:	*	*F:	*	*F:	*F:	*F:	*
*M2/4	*M2/4	*	*M2/4	*	*M2/4	*M2/4	*M2/4	*
!LO:TX:a:B:t=Moderato	!LO:TX:t=P:problem=4,8,16 left, middle or right&colon; global	!	!	!	!	!	!	!
!LO:TX:t=P:problem=4,8,16 left, middle or right&colon; global	!LO:TX:t=P:problem=oznaczenie tempa dopisane ołówkiem	!	!LO:TX:t=P:problem=4,8,16 left, middle or right&colon; global	!	!	!	!LO:TX:b:t=27	!
!	!LO:TX:a:B:t=Moderato:color=grey	!	!LO:TX:a:B:t=Moderato.	!	!LO:TX:a:B:t=Tacet	!LO:TX:a:B:t=Tacet	!LO:TX:a:B:t=Moderato&colon;	!
8F\	8ff\	.	8ff\	.	8ryy	8ryy	8ry	.
=1	=1	=1	=1	=1	=1	=1	=1	=1
4C/	16gg\LL	.	16gg\LL	.	2ryy	2ryy	0r	.
.	16ff\	.	16ff\	.	.	.	.	.
.	16ee\	.	16ee\	.	.	.	.	.
.	16dd\JJ	.	16dd\JJ	.	.	.	.	.
4CC/	16cc\LL	.	16cc\LL	.	.	.	.	.
.	16dd\	.	16dd\	.	.	.	.	.
.	16ee\	.	16ee\	.	.	.	.	.
.	16cc\JJ	.	16cc\JJ	.	.	.	.	.
=2	=2	=2	=2	=2	=2	=2	=2	=2
4FF/	16ff\LL	.	16ff\LL	.	2ryy	2ryy	.	.
.	16ee\	.	16gg\	.	.	.	.	.
.	16ff\	.	16aa\	.	.	.	.	.
.	16ee\JJ	.	16gg\JJ	.	.	.	.	.
4F\	16ff\LL	.	16aa\LL	.	.	.	.	.
.	16ee\	.	16gg\	.	.	.	.	.
.	16ff\	.	16aa\	.	.	.	.	.
.	16ff\JJ	.	16ff\JJ	.	.	.	.	.
=3	=3	=3	=3	=3	=3	=3	=3	=3
4C/	16gg\LL	.	16gg\LL	.	2ryy	2ryy	.	.
.	16ff\	.	16ff\	.	.	.	.	.
.	16ee\	.	16ee\	.	.	.	.	.
.	16dd\JJ	.	16dd\JJ	.	.	.	.	.
4CC/	16cc\LL	.	16cc\LL	.	.	.	.	.
.	16dd\	.	16dd\	.	.	.	.	.
.	16ee\	.	16ee\	.	.	.	.	.
.	16cc\JJ	.	16cc\JJ	.	.	.	.	.
=4	=4	=4	=4	=4	=4	=4	=4	=4
4FF/	16ff\LL	.	16ff\LL	.	2ryy	2ryy	.	.
.	16ee\	.	16gg\	.	.	.	.	.
.	16ff\	.	16aa\	.	.	.	.	.
.	16ee\JJ	.	16gg\JJ	.	.	.	.	.
4FF/	16ff\LL	.	16aa\LL	.	.	.	.	.
.	16ee\	.	16gg\	.	.	.	.	.
.	16ff\	.	16aa\	.	.	.	.	.
.	16ff\JJ	.	16ff\JJ	.	.	.	.	.
!	!	!	!LO:LB:g=original	!	!	!	!	!
=5	=5	=5	=5	=5	=5	=5	=5	=5
4C/	16gg\LL	.	16gg\LL	.	2ryy	2ryy	0r	.
.	16ff\	.	16ff\	.	.	.	.	.
.	16ee\	.	16ee\	.	.	.	.	.
.	16dd\JJ	.	16dd\JJ	.	.	.	.	.
!	!LO:LB:g=original	!	!	!	!	!	!	!
4C/	16cc\LL	.	16cc\LL	.	.	.	.	.
.	16dd\	.	16dd\	.	.	.	.	.
.	16ee\	.	16ee\	.	.	.	.	.
.	16cc\JJ	.	16cc\JJ	.	.	.	.	.
=6	=6	=6	=6	=6	=6	=6	=6	=6
4F\	8ff\L	.	8aa\L	.	2ryy	2ryy	.	.
.	8ff\J	.	8aa\J	.	.	.	.	.
4FF/	4ff\	.	4aa\	.	.	.	.	.
=7	=7	=7	=7	=7	=7	=7	=7	=7
4C/	16gg\LL	.	16gg\LL	.	2ryy	2ryy	.	.
.	16ff\	.	16ff\	.	.	.	.	.
.	16ee\	.	16ee\	.	.	.	.	.
.	16dd\JJ	.	16dd\JJ	.	.	.	.	.
4C/	16cc\LL	.	16cc\LL	.	.	.	.	.
.	16dd\	.	16dd\	.	.	.	.	.
.	16ee\	.	16ee\	.	.	.	.	.
.	16cc\JJ	.	16cc\JJ	.	.	.	.	.
=8	=8	=8	=8	=8	=8	=8	=8	=8
4F\	4ff\	.	4aa\|	.	2ryy	2ryy	.	.
4FF/	4ff\	.	4ff\|	.	.	.	.	.
=9	=9	=9	=9	=9	=9	=9	=9	=9
2C/	16bb-\LL	.	16bb-\LL	.	2ryy	2ryy	0r	.
.	16aa\	.	16aa\	.	.	.	.	.
.	16gg\	.	16gg\	.	.	.	.	.
.	16ff\JJ	.	16ff\JJ	.	.	.	.	.
.	16ee\LL	.	16ee\LL	.	.	.	.	.
.	16ff\	.	16ff\	.	.	.	.	.
.	16gg\	.	16gg\	.	.	.	.	.
.	16ee\JJ	.	16ee\JJ	.	.	.	.	.
=10	=10	=10	=10	=10	=10	=10	=10	=10
*2\right	*	*	*	*	*	*	*	*
2F\	4.a\	.	4.ff\	.	2ryy	2ryy	.	.
.	8cc\	.	8aa\	.	.	.	.	.
!	!	!	!LO:LB:g=original	!	!	!	!	!
=11	=11	=11	=11	=11	=11	=11	=11	=11
2C/	16bb-\LL	.	16bb-\LL	.	2ryy	2ryy	.	.
.	16aa\	.	16aa\	.	.	.	.	.
.	16gg\	.	16gg\	.	.	.	.	.
.	16ff\JJ	.	16ff\JJ	.	.	.	.	.
.	16ee\LL	.	16ee\LL	.	.	.	.	.
.	16ff\	.	16ff\	.	.	.	.	.
.	16gg\	.	16gg\	.	.	.	.	.
.	16ee\JJ	.	16ee\JJ	.	.	.	.	.
!	!LO:LB:g=original	!	!	!	!	!	!	!
=12	=12	=12	=12	=12	=12	=12	=12	=12
4F\	4ff\	.	4ff\	.	2ryy	2ryy	.	.
4FF/	4cc\	.	4cc\	.	.	.	.	.
=13	=13	=13	=13	=13	=13	=13	=13	=13
2C/	4ee\	.	4gg\	.	2ryy	2ryy	0r	.
.	8cc\L	.	8ee\L	.	.	.	.	.
.	8cc\J	.	8cc\J	.	.	.	.	.
=14	=14	=14	=14	=14	=14	=14	=14	=14
2F\	4ff\	.	4aa\	.	2ryy	2ryy	.	.
.	8ee\L	.	8gg\L	.	.	.	.	.
.	8dd\J	.	8ff\J	.	.	.	.	.
=15	=15	=15	=15	=15	=15	=15	=15	=15
2C/	4ee\	.	4gg\	.	2ryy	2ryy	.	.
.	8cc\L	.	8ee\L	.	.	.	.	.
.	8cc\J	.	8cc\J	.	.	.	.	.
=16	=16	=16	=16	=16	=16	=16	=16	=16
4F\	4ff\	.	4aa\	.	2ryy	2ryy	.	.
4FF/	4ff\	.	4aa\	.	.	.	.	.
=17	=17	=17	=17	=17	=17	=17	=17	=17
!	!	!	!	!	!	!	!LO:N:vis=0	!
2C/	4ee\	.	4gg\	.	2ryy	2ryy	1r	.
.	8cc\L	.	8ee\L	.	.	.	.	.
.	8cc\J	.	8cc\J	.	.	.	.	.
!LO:LB:g=original	!	!	!	!	!	!	!	!
=18	=18	=18	=18	=18	=18	=18	=18	=18
2F\	4ff\	.	4aa\	.	2ryy	2ryy	.	.
.	8ee\L	.	8gg\L	.	.	.	.	.
.	8dd\J	.	8ff\J	.	.	.	.	.
=19	=19	=19	=19	=19	=19	=19	=19	=19
!LO:TX:t=P:problem=zbędne pauzy w tt. 20-21	!LO:TX:t=P:problem=zbędne pauzy w bc	!	!LO:TX:t=P:problem=zbędne pauzy w bc	!	!	!	!LO:TX:t=P:problem=zbędne pauzy w bc	!
1r	2ryy	.	2ryy	.	2ryy	2ryy	2ryy	.
=20	=20	=20	=20	=20	=20	=20	=20	=20
.	2ryy	.	2ryy	.	2ryy	2ryy	2ryy	.
=21	=21	=21	=21	=21	=21	=21	=21	=21
2C/	4ee\	.	4gg\	.	2ryy	2ryy	2ryy	.
.	8cc\L	.	8ee\L	.	.	.	.	.
.	8cc\J	.	8cc\J	.	.	.	.	.
!	!	!	!LO:LB:g=original	!	!	!	!	!
=22	=22	=22	=22	=22	=22	=22	=22	=22
4F\	4ff\	.	4aa\	.	2ryy	2ryy	2ryy	.
4FF/	4ff\	.	4aa\	.	.	.	.	.
=23	=23	=23	=23	=23	=23	=23	=23	=23
2C/	16bb-\LL	.	16bb-\LL	.	2ryy	2ryy	0r	.
.	16aa\	.	16aa\	.	.	.	.	.
.	16gg\	.	16gg\	.	.	.	.	.
.	16ff\JJ	.	16ff\JJ	.	.	.	.	.
.	16ee\LL	.	16ee\LL	.	.	.	.	.
.	16ff\	.	16ff\	.	.	.	.	.
.	16gg\	.	16gg\	.	.	.	.	.
.	16ee\JJ	.	16ee\JJ	.	.	.	.	.
!	!LO:LB:g=original	!	!	!	!	!	!	!
=24	=24	=24	=24	=24	=24	=24	=24	=24
4F\	8ff\L	.	4ff\	.	2ryy	2ryy	.	.
.	8cc\J	.	.	.	.	.	.	.
4FF/	4a/	.	4cc\	.	.	.	.	.
=25	=25	=25	=25	=25	=25	=25	=25	=25
4C/	16b-/LL	.	16b-/LL	.	2ryy	2ryy	.	.
.	16a/	.	16a/	.	.	.	.	.
.	16g/	.	16g/	.	.	.	.	.
.	16f/JJ	.	16f/JJ	.	.	.	.	.
4C/	16a/LL	.	16a/LL	.	.	.	.	.
.	16g/	.	16g/	.	.	.	.	.
.	16f/	.	16f/	.	.	.	.	.
.	16e/JJ	.	16e/JJ	.	.	.	.	.
=26	=26	=26	=26	=26	=26	=26	=26	=26
4.FF/	4.f/	.	4.a/	.	2ryy	2ryy	.	.
8F\	8a/	.	8cc\	.	.	.	.	.
=27	=27	=27	=27	=27	=27	=27	=27	=27
4C/	16b-/LL	.	16b-/LL	.	2ryy	2ryy	1r	.
.	16a/	.	16a/	.	.	.	.	.
.	16g/	.	16g/	.	.	.	.	.
.	16f/JJ	.	16f/JJ	.	.	.	.	.
4C/	16a/LL	.	16a/LL	.	.	.	.	.
.	16g/	.	16g/	.	.	.	.	.
.	16f/	.	16f/	.	.	.	.	.
.	16e/JJ	.	16e/JJ	.	.	.	.	.
=28	=28	=28	=28	=28	=28	=28	=28	=28
4FF/	4f/	.	4f/	.	2ryy	2ryy	.	.
4rBB	4rg	.	4r	.	.	.	.	.
!	!	!	!LO:LB:g=original	!	!	!	!	!
=29	=29	=29	=29	=29	=29	=29	=29	=29
!LO:TX:t=P:problem=namiarowy takt pauzy w S	!LO:TX:t=P:problem=namiarowy takt pauzy w S	!	!LO:TX:t=P:problem=namiarowy takt pauzy w S	!	!LO:TX:t=P:problem=namiarowy takt pauzy w S	!LO:TX:t=P:problem=namiarowy takt pauzy w S	!	!
2ryy	2ryy	.	2ryy	.	2ryy	2ryy	2r	.
=29	=29	=29	=29	=29	=29	=29	=29	=29
*	*	*	*2\right	*	*	*	*	*
!	!	!LO:DY:a:t=Po	!	!	!	!	!LO:TX:t=P:problem=4,8,16 left, middle or right&colon; global	!
2F\	2a/	p	2cc\	.	2ryy	2ryy	8ff\	A
.	.	.	.	.	.	.	16ee\LL	ia
.	.	.	.	.	.	.	16dd\JJ	.
.	.	.	.	.	.	.	8cc\	Ko-
.	.	.	.	.	.	.	8cc\	-zak
!	!	!	!	!	!	!	!LO:LB:g=original	!
=30	=30	=30	=30	=30	=30	=30	=30	=30
4B-\	4b-/	.	4dd\	.	2ryy	2ryy	8dd\	swo-
.	.	.	.	.	.	.	16ee\LL	-ho
!	!	!	!	!	!	!	!LO:SIC:s=16cc	!
.	.	.	.	.	.	.	16dd\JJ	.
8A\L	4a/	.	4cc\	.	.	.	8ff\	Pa-
8F\J	.	.	.	.	.	.	8ff\	-na
=31	=31	=31	=31	=31	=31	=31	=31	=31
!	!LO:TX:a:t=2	!	!LO:TX:a:t=2	!	!	!	!	!
2C/	1r	.	1r	.	2ryy	2ryy	16gg\LL	pry-
.	.	.	.	.	.	.	16ff\JJ	.
.	.	.	.	.	.	.	16ee\LL	-szow
.	.	.	.	.	.	.	16dd\JJ	.
.	.	.	.	.	.	.	8cc\	zna-
.	.	.	.	.	.	.	8cc\	-ty
=32	=32	=32	=32	=32	=32	=32	=32	=32
4B-\	.	.	.	.	2ryy	2ryy	8dd\	a-
.	.	.	.	.	.	.	16ee\LL	-ta-
.	.	.	.	.	.	.	16cc\JJ	.
8A\L	.	.	.	.	.	.	8ff\	-ma-
8F\J	.	.	.	.	.	.	8ff\	-na
=33	=33	=33	=33	=33	=33	=33	=33	=33
!	!	!LO:DY:a:t=f.	!	!LO:DY:a:rj:t=f.	!	!	!	!
4C/	16cc\LL	f	16ee\LL	f	2ryy	2ryy	0r	.
.	16dd\	.	16ff\	.	.	.	.	.
.	16ee\	.	16gg\	.	.	.	.	.
.	16dd\JJ	.	16ff\JJ	.	.	.	.	.
4C/	16ee\LL	.	16gg\LL	.	.	.	.	.
.	16dd\	.	16ff\	.	.	.	.	.
.	16ee\	.	16gg\	.	.	.	.	.
.	16cc\JJ	.	16ee\JJ	.	.	.	.	.
!	!LO:LB:g=original	!	!	!	!	!	!	!
=34	=34	=34	=34	=34	=34	=34	=34	=34
4F\	16cc\LL	.	16ff\LL	.	2ryy	2ryy	.	.
.	16ee\	.	16gg\	.	.	.	.	.
.	16ff\	.	16aa\	.	.	.	.	.
.	16ff\JJ	.	16aa\JJ	.	.	.	.	.
4FF/	16ff\LL	.	16aa\LL	.	.	.	.	.
.	16ee\	.	16gg\	.	.	.	.	.
.	16ff\	.	16aa\	.	.	.	.	.
.	16cc\JJ	.	16ff\JJ	.	.	.	.	.
=35	=35	=35	=35	=35	=35	=35	=35	=35
4C/	16cc\LL	.	16ee\LL	.	2ryy	2ryy	.	.
.	16dd\	.	16ff\	.	.	.	.	.
.	16ee\	.	16gg\	.	.	.	.	.
.	16dd\JJ	.	16ff\JJ	.	.	.	.	.
4C/	16ee\LL	.	16gg\LL	.	.	.	.	.
.	16dd\	.	16ff\	.	.	.	.	.
.	16ee\	.	16gg\	.	.	.	.	.
.	16cc\JJ	.	16ee\JJ	.	.	.	.	.
=36	=36	=36	=36	=36	=36	=36	=36	=36
4F\	16cc\LL	.	16ff\LL	.	2ryy	2ryy	.	.
.	16ee\	.	16gg\	.	.	.	.	.
.	16ff\	.	16aa\	.	.	.	.	.
.	16ff\JJ	.	16aa\JJ	.	.	.	.	.
4FF/	16ff\LL	.	16aa\LL	.	.	.	.	.
.	16ee\	.	16gg\	.	.	.	.	.
.	16ff\	.	16aa\	.	.	.	.	.
.	16cc\JJ	.	16ff\JJ	.	.	.	.	.
!LO:LB:g=original	!	!	!LO:LB:g=original	!	!	!	!	!
=37	=37	=37	=37	=37	=37	=37	=37	=37
!	!	!	!	!LO:DY:a:rj:t=Po.	!	!	!	!
2F\	4a/	.	8ff\L	p	2ryy	2ryy	8ff\	A
.	.	.	16ee\L	.	.	.	16ee\LL	ia
.	.	.	16dd\JJ	.	.	.	16dd\JJ	.
!	!	!	!	!	!	!	!LO:LB:g=original	!
.	4a/	.	8cc\L	.	.	.	8cc\	Ko-
.	.	.	8cc\J	.	.	.	8cc\	-zaK
=38	=38	=38	=38	=38	=38	=38	=38	=38
4B-\	4b-/	.	8dd\L	.	2ryy	2ryy	8dd\	swo-
.	.	.	8ee\J	.	.	.	16ee\LL	-ho
.	.	.	.	.	.	.	16cc\JJ	.
8A\L	4a/	.	8ff\L	.	.	.	8ff\	Pa-
8F\J	.	.	8aa\J	.	.	.	8ff\	-na
=39	=39	=39	=39	=39	=39	=39	=39	=39
2C/	4ee\	.	4gg\	.	2ryy	2ryy	16gg\LL	pry-
.	.	.	.	.	.	.	16ff\JJ	.
.	.	.	.	.	.	.	16ee\LL	-szow
.	.	.	.	.	.	.	16dd\JJ	.
.	4ee\	.	4gg\	.	.	.	8cc\	zna-
.	.	.	.	.	.	.	8cc\	-ty
=40	=40	=40	=40	=40	=40	=40	=40	=40
4B-\	8dd\L	.	8dd\L	.	2ryy	2ryy	8dd\	a-
.	8cc\	.	8ee\	.	.	.	16ee\LL	-ta-
.	.	.	.	.	.	.	16cc\JJ	.
8A\L	8ff\	.	8ff\	.	.	.	8ff\	-ma-
8F\J	8ff\J	.	8aa\J	.	.	.	8ff\	-na
!	!LO:LB:g=original	!	!	!	!	!	!	!
=41	=41	=41	=41	=41	=41	=41	=41	=41
2C/	4ee\	.	4gg\	.	2ryy	2ryy	4gg\	pry-
.	8cc\L	.	8ee\L	.	.	.	8ee\L	-szow
.	8cc\J	.	8cc\J	.	.	.	8cc\J	.
!	!	!	!	!	!	!	!LO:LB:g=original	!
=42	=42	=42	=42	=42	=42	=42	=42	=42
4F\	4ff\	.	4aa\	.	2ryy	2ryy	4aa\	zna-
4FF/	4ff\	.	4aa\	.	.	.	4ff\	-ty
=43	=43	=43	=43	=43	=43	=43	=43	=43
2C/	4ee\	.	4gg\	.	2ryy	2ryy	4gg\	A-
.	8cc\L	.	8ee\L	.	.	.	8ee\L	-ta-
.	8cc\J	.	8cc\J	.	.	.	8cc\J	.
=44	=44	=44	=44	=44	=44	=44	=44	=44
4F\	4ff\	.	4aa\	.	2ryy	2ryy	4aa\	-ma-
4FF/	4ff\	.	4aa\	.	.	.	4ff\	-na
=45	=45	=45	=45	=45	=45	=45	=45	=45
!LO:TX:t=P:problem=powtórzenie tt. 42-45 oznaczone znakiem repetycji	!	!	!LO:TX:a:t=4	!	!	!	!	!
2C/yy	1r	.	1r	.	2ryy	2ryy	8ee\	A
.	.	.	.	.	.	.	8gg\	ia
.	.	.	.	.	.	.	8ee\	Ko-
.	.	.	.	.	.	.	8cc\	-zak
=46	=46	=46	=46	=46	=46	=46	=46	=46
4F\yy	.	.	.	.	2ryy	2ryy	8aa\	swo-
.	.	.	.	.	.	.	8aa\	-ho
4FF/yy	.	.	.	.	.	.	8gg\	Pa-
.	.	.	.	.	.	.	8ff\	-na
=47	=47	=47	=47	=47	=47	=47	=47	=47
!LO:TX:t=P:problem=zbędne pauzy w C I	!LO:TX:t=P:problem=zbędne pauzy w C I	!	!LO:TX:t=P:problem=zbędne pauzy w C I	!	!	!	!LO:TX:t=P:problem=zbędne pauzy w tt. 46-47	!
2ryy	2ryy	.	2ryy	.	2ryy	2ryy	2r	.
=48	=48	=48	=48	=48	=48	=48	=48	=48
2ryy	2ryy	.	2ryy	.	2ryy	2ryy	2r	.
!	!	!	!	!	!	!	!LO:LB:g=original	!
=49	=49	=49	=49	=49	=49	=49	=49	=49
2C/yy	2ryy	.	2ryy	.	2ryy	2ryy	8ee\	pry-
.	.	.	.	.	.	.	8gg\	-szow
.	.	.	.	.	.	.	8ee\	zna-
.	.	.	.	.	.	.	8cc\	-ty
=50	=50	=50	=50	=50	=50	=50	=50	=50
4F\yy	2ryy	.	2ryy	.	2ryy	2ryy	8aa\	A-
.	.	.	.	.	.	.	8aa\	-ta-
4FF/yy	.	.	.	.	.	.	8gg\	-ma-
.	.	.	.	.	.	.	8ff\	-na
=51	=51	=51	=51	=51	=51	=51	=51	=51
!	!	!	!	!LO:DY:a:t=Po.	!	!	!	!
4F\	8a/L	.	8cc\L	p	2ryy	2ryy	8cc\	ia
.	8a/	.	8cc\	.	.	.	8cc\	mu
4FF/	8g/	.	8b-\	.	.	.	8b-\	bu-
.	8f/J	.	8a\J	.	.	.	8a\	-du
!	!	!	!LO:LB:g=original	!	!	!	!	!
=52	=52	=52	=52	=52	=52	=52	=52	=52
4B-\	8b-/L	.	8dd\L	.	2ryy	2ryy	8dd\	tań-
.	8b-/	.	8dd\	.	.	.	8dd\	-ćio-
4BB-/	8a/	.	8cc\	.	.	.	8cc\	-wa-
.	8g/J	.	8b-\J	.	.	.	8b-\	-ty
!	!	!	!	!	!	!	!LO:PB:g=original	!
=53	=53	=53	=53	=53	=53	=53	=53	=53
4F\	8a/L	.	8cc\L	.	2ryy	2ryy	8cc\	szczob
.	8a/	.	8cc\	.	.	.	8cc\	sia
4FF/	8g/	.	8b-\	.	.	.	8b-\	z_me-
.	8f/J	.	8a\J	.	.	.	8a\	-ne
=54	=54	=54	=54	=54	=54	=54	=54	=54
4B-\	8b-/L	.	8dd\L	.	2ryy	2ryy	8dd\	chti-
.	8b-/	.	8dd\	.	.	.	8dd\	-wo
4BB-/	8a/	.	8cc\	.	.	.	8cc\	smia-
.	8g/J	.	8b-\J	.	.	.	8b-\	-ty
=55	=55	=55	=55	=55	=55	=55	=55	=55
4F\	4a/	.	4cc\	.	2ryy	2ryy	4cc\	Juz
4FF/	4rg	.	4rg	.	.	.	8a\L	Ko-
.	.	.	.	.	.	.	8f\J	.
=56	=56	=56	=56	=56	=56	=56	=56	=56
4B-\	4b-/	.	4dd\	.	2ryy	2ryy	4dd\	-ſta-
4BB-/	4r	.	4rg	.	.	.	8cc\L	-ryi
.	.	.	.	.	.	.	8b-\J	.
!	!LO:LB:g=original	!	!	!	!	!	!	!
=57	=57	=57	=57	=57	=57	=57	=57	=57
4F\	4a/	.	4cc\	.	2ryy	2ryy	4cc\	zbo-
4FF/	4r	.	4rg	.	.	.	8a\L	-ro-
.	.	.	.	.	.	.	8f\J	.
=58	=58	=58	=58	=58	=58	=58	=58	=58
4BB-/	4b-\	.	4dd\	.	2ryy	2ryy	4dd\	-do-
4B-\	4rg	.	4rg	.	.	.	8cc\L	-iu
.	.	.	.	.	.	.	8b-\J	.
!	!	!	!	!	!	!	!LO:LB:g=original	!
=59	=59	=59	=59	=59	=59	=59	=59	=59
4F\	4a/	.	8a\L	.	2ryy	2ryy	8a\	tre-
.	.	.	8cc\J	.	.	.	8cc\	-se
4FF/	4a/	.	8a/L	.	.	.	8a\	si-
.	.	.	8f/J	.	.	.	8f/	-dia-
!LO:LB:g=original	!	!	!	!	!	!	!	!
=60	=60	=60	=60	=60	=60	=60	=60	=60
4BB-/	8b-/L	.	8dd\L	.	2ryy	2ryy	8dd\	-czy
.	8b-/	.	8dd\	.	.	.	8dd\	z_Żo-
4B-\	8a/	.	8cc\	.	.	.	8cc\	-no-
.	8g/J	.	8b-\J	.	.	.	8b-\	-iu
=61	=61	=61	=61	=61	=61	=61	=61	=61
4F\	4a/	.	8a/L	.	2ryy	2ryy	8a\	tre-
.	.	.	8cc/	.	.	.	8cc\	-se
4FF/	4a/	.	8a/	.	.	.	8a\	tre-
.	.	.	8f/J	.	.	.	8f/	-se
!	!	!	!LO:LB:g=original	!	!	!	!	!
=62	=62	=62	=62	=62	=62	=62	=62	=62
4BB-/	8b-/L	.	8dd\L	.	2ryy	2ryy	8dd\	bo-
.	8b-/	.	8dd\	.	.	.	8dd\	-ro-
4B-\	8a/	.	8cc\	.	.	.	8cc\	-do-
.	8g/J	.	8b-\J	.	.	.	8b-\	-iu
!	!	!	!	!	!	!	!LO:LB:g=original	!
=63	=63	=63	=63	=63	=63	=63	=63	=63
4F\	4ff\	.	4bb-\	.	2ryy	2ryy	4ff\	a
4C/	8gg\L	.	8bb-\L	.	.	.	8gg\L	ma-
.	8ee\J	.	8gg\J	.	.	.	8ee\J	.
=64	=64	=64	=64	=64	=64	=64	=64	=64
4F\	4ff\	.	4aa\	.	2ryy	2ryy	4ff\	-łen-
4FF/	4ff\	.	4ff\	.	.	.	4cc\	-ki
=65	=65	=65	=65	=65	=65	=65	=65	=65
4F\	4ff\	.	4aa\	.	2ryy	2ryy	4ff\	łe-
4C/	8gg\L	.	8bb-\L	.	.	.	8gg\L	-zyt
.	8ee\J	.	8gg\J	.	.	.	8ee\J	.
=66	=66	=66	=66	=66	=66	=66	=66	=66
4F\	4ff\	.	4aa\	.	2ryy	2ryy	4ff\	w_Zło-
4FF/	4ff\	.	4ff\	.	.	.	4cc\	-bi
=67	=67	=67	=67	=67	=67	=67	=67	=67
2F\	8a/L	.	8cc\L	.	2ryy	2ryy	8cc\	dy-
.	8b-/	.	8dd\	.	.	.	8dd\	-wyt
.	8a/	.	8cc\	.	.	.	8cc\	sia-
.	8g/J	.	8b-\J	.	.	.	8b-\	-na
!	!LO:LB:g=original	!	!	!	!	!	!	!
=68	=68	=68	=68	=68	=68	=68	=68	=68
!	!	!	!LO:TX:t=P:problem=mixed beam	!	!	!	!	!
2F\	4a/	.	8a\L	.	2ryy	2ryy	8a\	me-
.	.	.	8b-\	.	.	.	8b-\	-ne
.	4a/	.	8cc\	.	.	.	8cc\	so-
.	.	.	8f/J	.	.	.	8a\	-bi
!	!	!	!	!	!	!	!LO:LB:g=original	!
=69	=69	=69	=69	=69	=69	=69	=69	=69
4C/	4ee\	.	4gg\	.	2ryy	2ryy	4gg\	hey
4C/	8cc\L	.	8ee\L	.	.	.	8ee\	czuch
*	*	*	*	*	*	*	*	*ij
.	8cc\J	.	8cc\J	.	.	.	8cc\	czuch
*	*	*	*	*	*	*	*	*Xij
=70	=70	=70	=70	=70	=70	=70	=70	=70
4F\	4ff\	.	4ff\	.	2ryy	2ryy	4ff\	czuch
4rBB	16aa\LL	.	16aa\LL	.	.	.	4re	.
.	16gg\	.	16gg\	.	.	.	.	.
.	16ff\	.	16ff\	.	.	.	.	.
.	16ee\JJ	.	16ee\JJ	.	.	.	.	.
=71	=71	=71	=71	=71	=71	=71	=71	=71
4C/	4ee\	.	4gg\	.	2ryy	2ryy	8gg\	czuch
*	*	*	*	*	*	*	*	*ij
.	.	.	.	.	.	.	8gg\	czuch
*	*	*	*	*	*	*	*	*Xij
4C/	8cc\L	.	8ee\L	.	.	.	8ee\	Ko-
.	8cc\J	.	8cc\J	.	.	.	8cc\	-za-
=72	=72	=72	=72	=72	=72	=72	=72	=72
4F\	4a/	.	4ff\	.	2ryy	2ryy	4ff\	-czuch
4rBB	4rg	.	4r	.	.	.	4r	.
=73	=73	=73	=73	=73	=73	=73	=73	=73
2C/	4ee\	.	4gg\	.	2ryy	2ryy	4gg\	u
.	8cc\L	.	8ee\L	.	.	.	(8ee\L	Pa-
.	8cc\J	.	8cc\J	.	.	.	8cc\J)	.
=74	=74	=74	=74	=74	=74	=74	=74	=74
4F\	4ff\	.	4ff\	.	2ryy	2ryy	4ff\	-na
4rBB	16aa\LL	.	16aa\LL	.	.	.	4r	.
.	16gg\	.	16gg\	.	.	.	.	.
.	16ff\	.	16ff\	.	.	.	.	.
.	16ee\JJ	.	16ee\JJ	.	.	.	.	.
!	!	!	!	!	!	!	!LO:LB:g=original	!
=75	=75	=75	=75	=75	=75	=75	=75	=75
2C/	4ee\	.	4gg\	.	2ryy	2ryy	4gg\	A-
.	4cc\	.	8ee\L	.	.	.	8ee\	-ta-
.	.	.	8cc\J	.	.	.	8cc\	-ma-
!LO:PB:g=original	!	!	!	!	!	!	!	!
=76	=76	=76	=76	=76	=76	=76	=76	=76
4F\	4a/	.	4ff\	.	2ryy	2ryy	4ff\	-na
4rBB	4rg	.	4r	.	.	.	4r	.
=77	=77	=77	=77	=77	=77	=77	=77	=77
4C/	16gg\LL	.	16gg\LL	.	2ryy	2ryy	0r	.
.	16ff\	.	16ff\	.	.	.	.	.
.	16ee\	.	16ee\	.	.	.	.	.
.	16dd\JJ	.	16dd\JJ	.	.	.	.	.
!	!LO:LB:g=original	!	!	!	!	!	!	!
4C/	16cc\LL	.	16cc\LL	.	.	.	.	.
.	16dd\	.	16dd\	.	.	.	.	.
.	16ee\	.	16ee\	.	.	.	.	.
.	16cc\JJ	.	16cc\JJ	.	.	.	.	.
=78	=78	=78	=78	=78	=78	=78	=78	=78
4F\	8ff\L	.	8aa\L	.	2ryy	2ryy	.	.
.	8ff\J	.	8aa\J	.	.	.	.	.
4FF/	4ff\	.	4aa\	.	.	.	.	.
=79	=79	=79	=79	=79	=79	=79	=79	=79
4C/	16gg\LL	.	16gg\LL	.	2ryy	2ryy	.	.
.	16ff\	.	16ff\	.	.	.	.	.
.	16ee\	.	16ee\	.	.	.	.	.
.	16dd\JJ	.	16dd\JJ	.	.	.	.	.
4C/	16cc\LL	.	16cc\LL	.	.	.	.	.
.	16dd\	.	16dd\	.	.	.	.	.
.	16ee\	.	16ee\	.	.	.	.	.
.	16cc\JJ	.	16cc\JJ	.	.	.	.	.
!	!	!	!LO:LB:g=original	!	!	!	!	!
=80	=80	=80	=80	=80	=80	=80	=80	=80
4F\	4ff\	.	4aa\	.	2ryy	2ryy	.	.
4FF/	4ff\	.	4ff\	.	.	.	.	.
=81	=81	=81	=81	=81	=81	=81	=81	=81
2C/	4ee\	.	4gg\	.	2ryy	2ryy	0r	.
.	8cc\L	.	8ee\L	.	.	.	.	.
.	8cc\J	.	8cc\J	.	.	.	.	.
=82	=82	=82	=82	=82	=82	=82	=82	=82
4F\	4ff\	.	4aa\	.	2ryy	2ryy	.	.
4rBB	8ee\L	.	8gg\L	.	.	.	.	.
.	8dd\J	.	8ff\J	.	.	.	.	.
=83	=83	=83	=83	=83	=83	=83	=83	=83
2C/	4ee\	.	4gg\	.	2ryy	2ryy	.	.
.	8cc\L	.	8ee\L	.	.	.	.	.
.	8cc\J	.	8cc\J	.	.	.	.	.
=84	=84	=84	=84	=84	=84	=84	=84	=84
4F\	8ff\L	.	8aa\L	.	2ryy	2ryy	.	.
.	16ee\L	.	16gg\L	.	.	.	.	.
.	16ff\JJ	.	16aa\JJ	.	.	.	.	.
4FF/	4ff\	.	4ff\	.	.	.	.	.
=85	=85	=85	=85	=85	=85	=85	=85	=85
2C/	16bb-\LL	.	16bb-\LL	.	2ryy	2ryy	0r	.
.	16aa\	.	16aa\	.	.	.	.	.
.	16gg\	.	16gg\	.	.	.	.	.
.	16ff\JJ	.	16ff\JJ	.	.	.	.	.
!	!LO:LB:g=original	!	!	!	!	!	!	!
.	16ee\LL	.	16ee\LL	.	.	.	.	.
.	16ff\	.	16ff\	.	.	.	.	.
.	16gg\	.	16gg\	.	.	.	.	.
.	16ee\JJ	.	16ee\JJ	.	.	.	.	.
=86	=86	=86	=86	=86	=86	=86	=86	=86
4F\	4cc\	.	4ff\	.	2ryy	2ryy	.	.
4FF/	4a/	.	4cc\	.	.	.	.	.
=87	=87	=87	=87	=87	=87	=87	=87	=87
2C/	16bb-\LL	.	16bb-\LL	.	2ryy	2ryy	.	.
.	16aa\	.	16aa\	.	.	.	.	.
.	16gg\	.	16gg\	.	.	.	.	.
.	16ff\JJ	.	16ff\JJ	.	.	.	.	.
.	16ee\LL	.	16ee\LL	.	.	.	.	.
.	16ff\	.	16ff\	.	.	.	.	.
.	16gg\	.	16gg\	.	.	.	.	.
.	16ee\JJ	.	16ee\JJ	.	.	.	.	.
!	!	!	!LO:LB:g=original	!	!	!	!	!
=88	=88	=88	=88	=88	=88	=88	=88	=88
4F\	8ff\L	.	4ff\	.	2ryy	2ryy	.	.
.	8cc\J	.	.	.	.	.	.	.
4FF/	4a/	.	4cc\	.	.	.	.	.
=89	=89	=89	=89	=89	=89	=89	=89	=89
4C/	16b-/LL	.	16b-/LL	.	2ryy	2ryy	0r	.
.	16a/	.	16a/	.	.	.	.	.
.	16g/	.	16g/	.	.	.	.	.
.	16f/JJ	.	16f/JJ	.	.	.	.	.
4CC/	16a/LL	.	16a/LL	.	.	.	.	.
.	16g/	.	16g/	.	.	.	.	.
.	16f/	.	16f/	.	.	.	.	.
.	16e/JJ	.	16e/JJ	.	.	.	.	.
=90	=90	=90	=90	=90	=90	=90	=90	=90
4F\	4a/	.	4a/	.	2ryy	2ryy	.	.
4FF/	4a/	.	4cc\	.	.	.	.	.
=91	=91	=91	=91	=91	=91	=91	=91	=91
4C/	16b-/LL	.	16b-/LL	.	2ryy	2ryy	.	.
.	16a/	.	16a/	.	.	.	.	.
.	16g/	.	16g/	.	.	.	.	.
.	16f/JJ	.	16f/JJ	.	.	.	.	.
4C/	16a/LL	.	16a/LL	.	.	.	.	.
.	16g/	.	16g/	.	.	.	.	.
.	16f/	.	16f/	.	.	.	.	.
.	16e/JJ	.	16e/JJ	.	.	.	.	.
=92	=92	=92	=92	=92	=92	=92	=92	=92
4F\	4f/	.	4f/	.	2ryy	2ryy	.	.
4rBB	4rg	.	4r	.	.	.	.	.
!LO:LB:g=original	!	!	!	!	!	!	!	!
=93	=93	=93	=93	=93	=93	=93	=93	=93
!	!	!LO:DY:a:t=p.	!	!LO:DY:a:t=Po.	!	!	!	!
4F\	4a/	p	8a\L	p	2ryy	2ryy	8a\	A
.	.	.	8cc\	.	.	.	8cc\	ia
4FF/	4a/	.	8a\	.	.	.	8a\	ska-
.	.	.	8f\J	.	.	.	8f/	-czu
!	!LO:LB:g=original	!	!	!	!	!	!	!
=94	=94	=94	=94	=94	=94	=94	=94	=94
4B-\	8b-/L	.	8dd\L	.	2ryy	2ryy	8dd\	ne-
.	8b-/	.	8dd\	.	.	.	8dd\	-pre-
4BB-/	8a/	.	8cc\	.	.	.	8cc\	-sta-
.	8g/J	.	8b-\J	.	.	.	8b-\	-iu
!	!	!	!	!	!	!	!LO:LB:g=original	!
=95	=95	=95	=95	=95	=95	=95	=95	=95
!	!	!	!	!LO:DY:a:t=f.	!	!	!LO:TX:a:t=2	!
4F\	16f/LL	.	16a\LL	f	2ryy	2ryy	1r	.
.	16g/	.	16b-\	.	.	.	.	.
.	16a/	.	16cc\	.	.	.	.	.
.	16b-/JJ	.	16dd\JJ	.	.	.	.	.
4FF/	16a/LL	.	16cc\LL	.	.	.	.	.
.	16g/	.	16b-\	.	.	.	.	.
.	16a/	.	16cc\	.	.	.	.	.
.	16f/JJ	.	16a\JJ	.	.	.	.	.
!	!	!	!LO:PB:g=original	!	!	!	!	!
=96	=96	=96	=96	=96	=96	=96	=96	=96
4B-\	16f/LL	.	16b-\LL	.	2ryy	2ryy	.	.
.	16a/	.	16cc\	.	.	.	.	.
.	16b-/	.	16dd\	.	.	.	.	.
.	16cc/JJ	.	16ee-X\JJ	.	.	.	.	.
4BB-/	16b-/LL	.	16dd\LL	.	.	.	.	.
.	16a/	.	16cc\	.	.	.	.	.
.	16b-/	.	16dd\	.	.	.	.	.
.	16f/JJ	.	16b-\JJ	.	.	.	.	.
=97	=97	=97	=97	=97	=97	=97	=97	=97
!	!	!	!	!LO:DY:a:t=p.	!	!	!	!
4F\	4f/	.	8a/L	p	2ryy	2ryy	8a\	no-
.	.	.	8cc/	.	.	.	8cc\	-hy
4FF/	4f/	.	8a/	.	.	.	8a\	zmer-
.	.	.	8f/J	.	.	.	8f/	-zły
=98	=98	=98	=98	=98	=98	=98	=98	=98
4B-\	8b-/L	.	8dd\L	.	2ryy	2ryy	8dd\	za-
.	8b-/	.	8dd\	.	.	.	8dd\	-hry-
4BB-/	8a/	.	8cc\	.	.	.	8cc\	-wa-
.	8g/J	.	8b-\J	.	.	.	8b-\	-iu
=99	=99	=99	=99	=99	=99	=99	=99	=99
4F\	16f/LL	.	16a\LL	.	2ryy	2ryy	1r	.
.	16g/	.	16b-\	.	.	.	.	.
.	16a/	.	16cc\	.	.	.	.	.
.	16b-/JJ	.	16dd\JJ	.	.	.	.	.
4FF/	16a/LL	.	16cc\LL	.	.	.	.	.
.	16g/	.	16b-\	.	.	.	.	.
.	16a/	.	16cc\	.	.	.	.	.
.	16f/JJ	.	16a\JJ	.	.	.	.	.
=100	=100	=100	=100	=100	=100	=100	=100	=100
4B-\	16f/LL	.	16b-\LL	.	2ryy	2ryy	.	.
.	16a/	.	16cc\	.	.	.	.	.
.	16b-/	.	16dd\	.	.	.	.	.
.	16cc/JJ	.	16ee-X\JJ	.	.	.	.	.
4BB-/	16b-/LL	.	16dd\LL	.	.	.	.	.
.	16a/	.	16cc\	.	.	.	.	.
.	16b-/	.	16dd\	.	.	.	.	.
.	16f/JJ	.	16b-\JJ	.	.	.	.	.
!	!LO:LB:g=original	!	!LO:LB:g=original	!	!	!	!	!
=101	=101	=101	=101	=101	=101	=101	=101	=101
4F\	8a/L	.	8cc\L	.	2ryy	2ryy	8cc\	pi-
.	8a/	.	8cc\	.	.	.	8cc\	-du
4FF/	8g/	.	8b-\	.	.	.	8b-\	i
.	8f/J	.	8a\J	.	.	.	8a\	szcze-
!	!	!	!	!	!	!	!LO:LB:g=original	!
=102	=102	=102	=102	=102	=102	=102	=102	=102
4B-\	8f/L	.	8b-\L	.	2ryy	2ryy	8b-\	-y
.	8f/	.	8b-\	.	.	.	8b-\	pry-
4BB-/	8f/	.	8b-\	.	.	.	8b-\	-siu-
.	8b-/J	.	8dd\J	.	.	.	8dd\	-dy
=103	=103	=103	=103	=103	=103	=103	=103	=103
4F\	8a/L	.	8cc\L	.	2ryy	2ryy	8cc\	nech
.	8a/	.	8cc\	.	.	.	8cc\	sia
4FF/	8g/	.	8b-\	.	.	.	8b-\	smi-
.	8f/J	.	8a\J	.	.	.	8a\	-iut
=104	=104	=104	=104	=104	=104	=104	=104	=104
4B-\	8f/L	.	8b-\L	.	2ryy	2ryy	8b-\	zme-
.	8f/	.	8b-\	.	.	.	8b-\	-ne
4BB-/	8f/	.	8b-\	.	.	.	8b-\	di-
.	8b-/J	.	8dd\J	.	.	.	8dd\	-dy
=105	=105	=105	=105	=105	=105	=105	=105	=105
2B-\	4b-\	.	4dd\	.	2ryy	2ryy	4dd\	pi-
.	4b-\	.	8ee\L	.	.	.	8een\L	-du
.	.	.	8cc\J	.	.	.	8cc\J	.
!	!	!	!	!	!	!	!LO:LB:g=original	!
=106	=106	=106	=106	=106	=106	=106	=106	=106
4A\	4a/	.	4ff\	.	2ryy	2ryy	4ff\	i
4F\	4a/	.	16aa\LL	.	.	.	4ff\	szcze-
.	.	.	16gg\	.	.	.	.	.
.	.	.	16ff\	.	.	.	.	.
.	.	.	16ee\JJ	.	.	.	.	.
=107	=107	=107	=107	=107	=107	=107	=107	=107
4C/	4ee\	.	4gg\	.	2ryy	2ryy	4gg\	-i
4C/	4cc\	.	8ee\L	.	.	.	8ee\L	pry-
.	.	.	8cc\J	.	.	.	8cc\J	.
=108	=108	=108	=108	=108	=108	=108	=108	=108
4F\	4a/	.	4ff\	.	2ryy	2ryy	4ff\	-siu-
4FF/	4a/	.	16aa\LL	.	.	.	4ff\	-dy
.	.	.	16gg\	.	.	.	.	.
.	.	.	16ff\	.	.	.	.	.
.	.	.	16ee\JJ	.	.	.	.	.
=109	=109	=109	=109	=109	=109	=109	=109	=109
4C/	4ee\	.	4gg\	.	2ryy	2ryy	4gg\	nech
4C/	4cc\	.	8ee\L	.	.	.	8ee\L	sia
.	.	.	8cc\J	.	.	.	8cc\J	.
!	!	!	!LO:LB:g=original	!	!	!	!	!
=110	=110	=110	=110	=110	=110	=110	=110	=110
!	!	!	!	!LO:DY:a	!	!	!	!
4F\	4a/	.	4ff\	f	2ryy	2ryy	4ff\	smi-
4FF/	4a/	.	16aa\LL	.	.	.	4ff\	-iut
.	.	.	16gg\	.	.	.	.	.
.	.	.	16ff\	.	.	.	.	.
.	.	.	16ee\JJ	.	.	.	.	.
=111	=111	=111	=111	=111	=111	=111	=111	=111
4C/	4ee\	.	4gg\	.	2ryy	2ryy	4gg\	zme-
!	!	!	!LO:TX:a:t=e	!	!	!	!	!
4C/	4cc\	.	8ee\L	.	.	.	8ee\L	-ne
.	.	.	8cc\J	.	.	.	8cc\J	.
!	!LO:PB:g=original	!	!	!	!	!	!	!
=112	=112	=112	=112	=112	=112	=112	=112	=112
4F\	4ff\	.	4aa\	.	2ryy	2ryy	4ff\	di-
4FF/	4ff\	.	4aa\	.	.	.	4ff\	-dy
!LO:LB:g=original	!	!	!	!	!	!	!LO:LB:g=original	!
=113	=113	=113	=113	=113	=113	=113	=113	=113
!	!	!	!	!LO:DY:a:t=p.	!	!	!	!
4F\	16f/LL	.	16a\LL	p	2ryy	2ryy	16a\LL	uz
.	16g/	.	16b-\	.	.	.	16b-\JJ	.
.	16a/	.	16cc\	.	.	.	16cc\LL	zey
.	16b-/JJ	.	16dd\JJ	.	.	.	16dd\JJ	.
4FF/	16a/LL	.	16cc\LL	.	.	.	16cc\LL	ne-
.	16g/	.	16b-\	.	.	.	16b-\JJ	.
.	16a/	.	16cc\	.	.	.	16cc\LL	-bu-
.	16f/JJ	.	16a\JJ	.	.	.	16a\JJ	.
=114	=114	=114	=114	=114	=114	=114	=114	=114
4B-\	16f/LL	.	16b-\LL	.	2ryy	2ryy	16b-\LL	-du
.	16a/	.	16cc\	.	.	.	16cc\JJ	.
.	16b-/	.	16dd\	.	.	.	16dd\LL	hu-
.	16cc/JJ	.	16ee-X\JJ	.	.	.	16ee-X\JJ	.
4BB-/	16b-/LL	.	16dd\LL	.	.	.	16dd\LL	-la-
.	16a/	.	16cc\	.	.	.	16cc\JJ	.
.	16b-/	.	16dd\	.	.	.	16dd\LL	-ty
.	16f/JJ	.	16b-\JJ	.	.	.	16b-\JJ	.
=115	=115	=115	=115	=115	=115	=115	=115	=115
4F\	16f/LL	.	16a\LL	.	2ryy	2ryy	16a\LL	no-
.	16g/	.	16b-\	.	.	.	16b-\JJ	.
.	16a/	.	16cc\	.	.	.	16cc\LL	-hy
.	16b-/JJ	.	16dd\JJ	.	.	.	16dd\JJ	.
4FF/	16a/LL	.	16cc\LL	.	.	.	16cc\LL	bo-
.	16g/	.	16b-\	.	.	.	16b-\JJ	.
.	16a/	.	16cc\	.	.	.	16cc\LL	-lat
.	16f/JJ	.	16a\JJ	.	.	.	16a\JJ	.
!	!	!	!LO:LB:g=original	!	!	!	!	!
=116	=116	=116	=116	=116	=116	=116	=116	=116
4B-\	16f/LL	.	16b-\LL	.	2ryy	2ryy	16b-\LL	czas
.	16a/	.	16cc\	.	.	.	16cc\JJ	.
.	16b-/	.	16dd\	.	.	.	16dd\LL	do
.	16cc/JJ	.	16ee-X\JJ	.	.	.	16ee-X\JJ	.
!	!	!	!	!	!	!	!LO:LB:g=original	!
4BB-/	16b-/LL	.	16dd\LL	.	.	.	16dd\LL	cha-
.	16a/	.	16cc\	.	.	.	16cc\JJ	.
.	16b-/	.	16dd\	.	.	.	16dd\LL	-ty
.	16f/JJ	.	16b-\JJ	.	.	.	16b-\JJ	.
=117	=117	=117	=117	=117	=117	=117	=117	=117
*	*2\right	*	*	*	*	*	*	*
2B-\	2b-\	.	4dd\	.	2ryy	2ryy	4dd\	hey
.	.	.	8ee\L	.	.	.	8een\	czuch
*	*	*	*	*	*	*	*	*ij
.	.	.	8cc\J	.	.	.	8cc\	czuch
*	*	*	*	*	*	*	*	*Xij
=118	=118	=118	=118	=118	=118	=118	=118	=118
4A\	4a/	.	4ff\	.	2ryy	2ryy	8ff\	czuch
*	*	*	*	*	*	*	*	*ij
.	.	.	.	.	.	.	8ff\	czuch
4F\	4r	.	4r	.	.	.	4ff\	czuch
*	*	*	*	*	*	*	*	*Xij
=119	=119	=119	=119	=119	=119	=119	=119	=119
4C/	4ee\	.	4gg\	.	2ryy	2ryy	4gg\	Ko-
4C/	4cc\	.	8ee\L	.	.	.	8ee\L	-za-
.	.	.	8cc\J	.	.	.	8cc\J	.
!	!LO:LB:g=original	!	!	!	!	!	!	!
=120	=120	=120	=120	=120	=120	=120	=120	=120
4F\	4a/	.	4ff\	.	2ryy	2ryy	4ff\	-czuch
4rBB	4rg	.	16aa\LL	.	.	.	4re	.
.	.	.	16gg\	.	.	.	.	.
.	.	.	16ff\	.	.	.	.	.
.	.	.	16ee\JJ	.	.	.	.	.
=121	=121	=121	=121	=121	=121	=121	=121	=121
4C/	4ee\	.	4gg\	.	2ryy	2ryy	4gg\	u
4C/	4cc\	.	8ee\L	.	.	.	8ee\L	Pa-
.	.	.	8cc\J	.	.	.	8cc\J	.
!	!	!	!	!	!	!	!LO:LB:g=original	!
=122	=122	=122	=122	=122	=122	=122	=122	=122
4F\	4a/	.	4ff\	.	2ryy	2ryy	4ff\	-na
4rBB	4a/	.	16aa\LL	.	.	.	4re	.
.	.	.	16gg\	.	.	.	.	.
.	.	.	16ff\	.	.	.	.	.
.	.	.	16ee\JJ	.	.	.	.	.
=123	=123	=123	=123	=123	=123	=123	=123	=123
4C/	4ee\	.	4gg\	.	2ryy	2ryy	4gg\	A-
4C/	4cc\	.	8ee\L	.	.	.	8ee\	-ta-
.	.	.	8cc\J	.	.	.	8cc\	-ma-
=124	=124	=124	=124	=124	=124	=124	=124	=124
4F\	4a/	.	4ff\	.	2ryy	2ryy	4ff\	-na
4rBB	4r	.	16aa\LL	.	.	.	4re	.
.	.	.	16gg\	.	.	.	.	.
.	.	.	16ff\	.	.	.	.	.
.	.	.	16ee\JJ	.	.	.	.	.
!	!	!	!LO:LB:g=original	!	!	!	!	!
=125	=125	=125	=125	=125	=125	=125	=125	=125
4C/	16gg\LL	.	16gg\LL	.	2ryy	2ryy	0r	.
.	16ff\	.	16ff\	.	.	.	.	.
.	16ee\	.	16ee\	.	.	.	.	.
.	16dd\JJ	.	16dd\JJ	.	.	.	.	.
4C/	16cc\LL	.	16cc\LL	.	.	.	.	.
.	16dd\	.	16dd\	.	.	.	.	.
.	16ee\	.	16ee\	.	.	.	.	.
.	16cc\JJ	.	16cc\JJ	.	.	.	.	.
=126	=126	=126	=126	=126	=126	=126	=126	=126
4F\	16ff\LL	.	16ff\LL	.	2ryy	2ryy	.	.
.	16ee\	.	16gg\	.	.	.	.	.
.	16ff\	.	16aa\	.	.	.	.	.
.	16ee\JJ	.	16gg\JJ	.	.	.	.	.
4FF/	16ff\LL	.	16aa\LL	.	.	.	.	.
.	16ee\	.	16gg\	.	.	.	.	.
.	16ff\	.	16aa\	.	.	.	.	.
.	16ff\JJ	.	16ff\JJ	.	.	.	.	.
=127	=127	=127	=127	=127	=127	=127	=127	=127
4C/	16gg\LL	.	16gg\LL	.	2ryy	2ryy	.	.
.	16ff\	.	16ff\	.	.	.	.	.
.	16ee\	.	16ee\	.	.	.	.	.
.	16dd\JJ	.	16dd\JJ	.	.	.	.	.
4C/	16cc\LL	.	16cc\LL	.	.	.	.	.
.	16dd\	.	16dd\	.	.	.	.	.
.	16ee\	.	16ee\	.	.	.	.	.
.	16cc\JJ	.	16cc\JJ	.	.	.	.	.
=128	=128	=128	=128	=128	=128	=128	=128	=128
4F\	4ff\	.	4aa\	.	2ryy	2ryy	.	.
4F\	4ff\	.	4ff\	.	.	.	.	.
=129	=129	=129	=129	=129	=129	=129	=129	=129
4C/	16gg\LL	.	16gg\LL	.	2ryy	2ryy	0r	.
.	16ff\	.	16ff\	.	.	.	.	.
.	16ee\	.	16ee\	.	.	.	.	.
.	16dd\JJ	.	16dd\JJ	.	.	.	.	.
!	!LO:LB:g=original	!	!	!	!	!	!	!
4C/	16cc\LL	.	16cc\LL	.	.	.	.	.
.	16dd\	.	16dd\	.	.	.	.	.
.	16ee\	.	16ee\	.	.	.	.	.
.	16cc\JJ	.	16cc\JJ	.	.	.	.	.
=130	=130	=130	=130	=130	=130	=130	=130	=130
4F\	16ff\LL	.	16ff\LL	.	2ryy	2ryy	.	.
.	16ee\	.	16gg\	.	.	.	.	.
.	16ff\	.	16aa\	.	.	.	.	.
.	16ee\JJ	.	16gg\JJ	.	.	.	.	.
4F\	16ff\LL	.	16aa\LL	.	.	.	.	.
.	16ee\	.	16gg\	.	.	.	.	.
.	16ff\	.	16aa\	.	.	.	.	.
.	16ff\JJ	.	16ff\JJ	.	.	.	.	.
=131	=131	=131	=131	=131	=131	=131	=131	=131
!LO:TX:t=P:problem=powtórzenie tt. 128-129	!	!	!	!	!	!	!	!
4C/yy	16gg\LL	.	16gg\LL	.	2ryy	2ryy	.	.
.	16ff\	.	16ff\	.	.	.	.	.
.	16ee\	.	16ee\	.	.	.	.	.
.	16dd\JJ	.	16dd\JJ	.	.	.	.	.
4C/yy	16cc\LL	.	16cc\LL	.	.	.	.	.
.	16dd\	.	16dd\	.	.	.	.	.
.	16ee\	.	16ee\	.	.	.	.	.
.	16cc\JJ	.	16cc\JJ	.	.	.	.	.
!	!	!	!LO:LB:g=original	!	!	!	!	!
=132	=132	=132	=132	=132	=132	=132	=132	=132
4F\yy	4ff\	.	4aa\	.	2ryy	2ryy	.	.
4F\yy	4ff\	.	4ff\	.	.	.	.	.
=133	=133	=133	=133	=133	=133	=133	=133	=133
4C/	4ee\	.	4gg\	.	2ryy	2ryy	0r	.
4C/	4cc\	.	8ee\L	.	.	.	.	.
.	.	.	8cc\J	.	.	.	.	.
=134	=134	=134	=134	=134	=134	=134	=134	=134
4F\	4ff\	.	4aa\	.	2ryy	2ryy	.	.
4FF/	8ee\L	.	8gg\L	.	.	.	.	.
.	8dd\J	.	8ff\J	.	.	.	.	.
!LO:LB:g=original	!	!	!	!	!	!	!	!
=135	=135	=135	=135	=135	=135	=135	=135	=135
4C/	4ee\	.	4gg\	.	2ryy	2ryy	.	.
4C/	4cc\	.	8ee\L	.	.	.	.	.
.	.	.	8cc\J	.	.	.	.	.
=136	=136	=136	=136	=136	=136	=136	=136	=136
4F\	4ff\	.	4aa\	.	2ryy	2ryy	.	.
4F\	4ff\	.	4ff\	.	.	.	.	.
=137	=137	=137	=137	=137	=137	=137	=137	=137
4C/	16bb-\LL	.	16bb-\LL	.	2ryy	2ryy	0r	.
.	16aa\	.	16aa\	.	.	.	.	.
.	16gg\	.	16gg\	.	.	.	.	.
.	16ff\JJ	.	16ff\JJ	.	.	.	.	.
4C/	16ee\LL	.	16ee\LL	.	.	.	.	.
.	16ff\	.	16ff\	.	.	.	.	.
.	16gg\	.	16gg\	.	.	.	.	.
.	16ee\JJ	.	16ee\JJ	.	.	.	.	.
!	!LO:LB:g=original	!	!	!	!	!	!	!
=138	=138	=138	=138	=138	=138	=138	=138	=138
8F\L	4.ff\	.	4.ff\	.	2ryy	2ryy	.	.
16A\L	.	.	.	.	.	.	.	.
16G\JJ	.	.	.	.	.	.	.	.
8A\L	.	.	.	.	.	.	.	.
8F\J	8aa\	.	8aa\	.	.	.	.	.
=139	=139	=139	=139	=139	=139	=139	=139	=139
4C/	16bb-\LL	.	16bb-\LL	.	2ryy	2ryy	.	.
.	16aa\	.	16aa\	.	.	.	.	.
.	16gg\	.	16gg\	.	.	.	.	.
.	16ff\JJ	.	16ff\JJ	.	.	.	.	.
4CC/	16aa\LL	.	16aa\LL	.	.	.	.	.
.	16gg\	.	16gg\	.	.	.	.	.
.	16ff\	.	16ff\	.	.	.	.	.
.	16ee\JJ	.	16ee\JJ	.	.	.	.	.
=140	=140	=140	=140	=140	=140	=140	=140	=140
!	!	!	!	!	!	!	!LO:TX:t=P:problem=partia kończy się w t. 139	!
4FF/	4ff\	.	4ff\	.	2ryy	2ryy	.	.
!LO:TX:t=P:problem=partia kończy się w t. 139	!LO:TX:t=P:problem=partia kończy się w t. 137	!	!LO:TX:t=P:problem=partia kończy się w t. 137	!	!	!	!	!
4rBB	4r	.	4rg	.	.	.	.	.
==	==	==	==	==	==	==	==	==
*-	*-	*-	*-	*-	*-	*-	*-	*-
!!!system-decoration: [(g1)][(g2)]s6
!!!ENC: Andrzej Kubiczek
!!!END: 2020-12-09
!!!RDF**kern: | = vertical stroke
!!!EED: Andrzej Borzym
!!!EST: 2022-01-09
